static/center.svg

<svg xmlns="http://www.w3.org/2000/svg" width="993" height="594" fill="none"><path fill="url(#a)" fill-opacity=".36" d="M347.336 116.602c-14.275-11.785-28.437-23.476-69.044-15.747-53.683 10.217-69.699 41.484-83.388 68.208-8.157 15.924-15.488 30.236-29.47 37.522-9.636 5.021-25.654 6.167-44.029 7.481C68.373 217.859-4.289 223.057.198 326.879v.002c3.533 81.735 42.33 81.117 78.944 80.533 26.008-.414 50.914-.811 61.296 28.34 7.467 20.968 6.118 41.897 4.862 61.38-.311 4.812-.615 9.536-.78 14.151-1.4 39.244 7.321 70.574 108.743 80.944 98.544 10.077 138.709-24.791 174.267-55.659 22.763-19.761 43.638-37.883 76.732-41.525 34.305-3.774 79.258 12.743 126.082 29.948 68.908 25.32 141.869 52.128 190.908 17.942 49.285-34.356 35.732-69.083 22.055-104.131-9.18-23.522-18.416-47.19-8.75-70.987 9.729-23.954 36.558-34.252 64.915-45.136 41.791-16.04 86.901-33.354 85.496-97.528-1.686-76.998-98.887-85.781-163.608-91.63-25.826-2.334-46.48-4.2-53.83-9.747s-12.553-15.209-18.429-26.124c-14.726-27.35-33.684-62.563-101.283-60.571-51.654 1.522-81.66 21.599-114.492 43.567-27.283 18.255-56.517 37.816-101.745 49.122-52.42 13.104-68.402-.09-84.245-13.168"/><path fill="#E6AA92" d="M356.992 88.781c-14.056-12.005-27.999-23.914-67.982-16.04-52.857 10.408-68.626 42.257-82.105 69.481-8.032 16.221-15.25 30.8-29.016 38.221-9.488 5.115-25.26 6.282-43.352 7.621-52.216 3.864-123.76 9.159-119.342 114.918v.002c3.479 83.261 41.679 82.631 77.729 82.036 25.608-.422 50.131-.827 60.353 28.869 7.352 21.359 6.024 42.679 4.787 62.525-.305 4.902-.605 9.714-.767 14.415-1.379 39.976 7.208 71.891 107.069 82.455 97.028 10.264 136.575-25.254 171.586-56.699 22.413-20.129 42.966-38.589 75.551-42.299 33.777-3.845 78.038 12.981 124.142 30.507 67.848 25.792 139.687 53.1 187.971 18.277 48.526-34.998 35.183-70.372 21.715-106.074-9.038-23.962-18.132-48.071-8.615-72.312 9.579-24.401 35.996-34.891 63.917-45.978 41.147-16.339 85.564-33.976 84.18-99.348-1.66-78.434-97.365-87.382-161.091-93.339-25.428-2.378-45.765-4.279-53.002-9.93s-12.359-15.493-18.145-26.61C738.076 41.616 719.409 5.747 652.85 7.776c-50.858 1.55-80.403 22.002-112.73 44.38-26.863 18.596-55.647 38.521-100.179 50.038-51.614 13.348-67.35-.091-82.949-13.414"/><path fill="#FBD0B0" d="M364.307 81.087c-14.056-12.005-28-23.914-67.982-16.04-52.857 10.407-68.627 42.257-82.106 69.481-8.031 16.221-15.25 30.799-29.016 38.221-9.488 5.115-25.259 6.282-43.351 7.621-52.216 3.864-123.76 9.158-119.342 114.918v.001c3.478 83.261 41.679 82.631 77.728 82.037 25.608-.422 50.131-.827 60.353 28.869 7.353 21.359 6.024 42.678 4.788 62.525-.306 4.902-.606 9.714-.768 14.414-1.378 39.977 7.209 71.891 107.069 82.456 97.029 10.264 136.576-25.255 171.586-56.699 22.413-20.13 42.967-38.59 75.552-42.299 33.777-3.845 78.038 12.98 124.142 30.506 67.848 25.792 139.686 53.101 187.97 18.278 48.527-34.998 35.183-70.373 21.716-106.075-9.039-23.961-18.133-48.07-8.616-72.311 9.58-24.402 35.996-34.891 63.917-45.978 41.148-16.339 85.564-33.976 84.18-99.349-1.66-78.434-97.365-87.381-161.09-93.339-25.429-2.377-45.765-4.278-53.002-9.929-7.238-5.65-12.36-15.493-18.146-26.611C745.39 33.923 726.723-1.946 660.165.082c-50.859 1.55-80.403 22.003-112.731 44.381-26.862 18.595-55.647 38.52-100.179 50.038-51.614 13.348-67.35-.092-82.948-13.414"/><path fill="#FFDDC4" d="M370.3 107.15c-13.246-10.431-26.387-20.779-64.067-13.938-49.814 9.044-64.676 36.717-77.378 60.371-7.569 14.095-14.372 26.762-27.346 33.211-8.941 4.444-23.804 5.458-40.855 6.621-49.209 3.358-116.634 7.958-112.47 99.851v.001c3.279 72.345 39.279 71.797 73.253 71.281 24.133-.367 47.244-.719 56.878 25.083 6.929 18.559 5.677 37.083 4.511 54.328-.288 4.259-.57 8.44-.723 12.524-1.299 34.735 6.793 62.465 100.904 71.644 91.442 8.919 128.712-21.943 161.706-49.264 21.122-17.491 40.493-33.53 71.201-36.753 31.832-3.341 73.545 11.278 116.994 26.506 63.941 22.411 131.643 46.139 177.147 15.881 45.732-30.409 33.157-61.145 20.465-92.166-8.518-20.82-17.088-41.768-8.119-62.831 9.028-21.202 33.923-30.316 60.236-39.95 38.779-14.196 80.637-29.521 79.333-86.322-1.564-68.15-91.758-75.925-151.814-81.101-23.965-2.066-43.131-3.718-49.951-8.627s-11.648-13.462-17.101-23.123c-13.664-24.208-31.255-55.374-93.982-53.611-47.93 1.347-75.773 19.117-106.239 38.562-25.316 16.157-52.443 33.47-94.41 43.477-48.643 11.598-63.473-.08-78.173-11.655"/><path fill="#E6AA92" d="M265.21 227.676q-2.524 1.2-3.059 3.254-.476 2.026 1.31 5.783l3.294 6.927 9.744-4.634-3.349-7.044q-1.173-2.466-2.457-3.654-1.313-1.247-2.621-1.273-1.277-.112-2.862.641m15.141 19.431-9.744 4.633 1.479 3.112q1.423 2.993.508 5.156t-4.789 4.005q-1.644.781-2.924.814t-2.632-.692q-1.293-.753-2.709-2.67-1.385-2.005-3.043-4.887-1.628-2.969-3.833-7.606-1.926-4.05-2.695-7.787-.738-3.824-.446-6.842.351-3.045 1.334-5.672.954-2.685 2.593-4.688 1.697-2.03 3.47-3.449a18.2 18.2 0 0 1 3.858-2.482 19 19 0 0 1 5.207-1.612q2.714-.5 5.961-.028a18.9 18.9 0 0 1 6.239 2.072q3.023 1.513 6.039 4.83 3.016 3.315 5.305 8.129 3.684 7.749 4.884 11.785 1.23 3.95.578 6.059-.594 2.082-3.353 3.393-3.875 1.842-6.129 1.187-2.255-.655-3.679-3.649zM329.671 210.724q-.635-2.32-1.434-3.516-.816-1.26-2.133-1.641a6.1 6.1 0 0 0-2.623-.225q-1.323.092-3.579.709l3.773 13.794q1.756-.48 2.987-1.155a7.7 7.7 0 0 0 2.216-1.752q.923-1.06 1.11-2.594.231-1.614-.317-3.62m-2.788 20.845q1.39 5.078.109 7.787-1.297 2.646-5.184 3.71-3.888 1.063-6.237-.383-2.368-1.508-3.74-6.524l-7.239-26.458q-1.047-3.824.525-6.208 1.554-2.447 4.94-3.374l11.16-3.053q4.075-1.116 7.832-.93 3.74.122 6.797 1.442 3.102 1.24 5.305 3.872 2.248 2.553 3.243 6.189 1.218 4.451-.444 8.478-1.679 3.963-5.433 6.742t-9.021 4.221l-3.573.978zM382.234 198.545q-.405-2.37-1.083-3.639-.689-1.334-1.962-1.841a6.1 6.1 0 0 0-2.588-.482q-1.326-.037-3.632.356l2.406 14.096q1.794-.306 3.084-.856a7.8 7.8 0 0 0 2.378-1.526q1.022-.966 1.358-2.474.389-1.584.039-3.634m-4.815 20.472q.887 5.19-.654 7.761-1.55 2.506-5.523 3.184t-6.169-.991q-2.208-1.734-3.083-6.859l-4.614-27.039q-.667-3.908 1.13-6.128 1.787-2.283 5.246-2.873l11.405-1.947q4.166-.71 7.886-.158 3.71.488 6.623 2.1 2.966 1.538 4.9 4.373 1.988 2.76 2.622 6.477.777 4.548-1.271 8.393-2.058 3.78-6.067 6.179-4.009 2.398-9.391 3.317l-3.652.623zM424.047 222.741q-2.978.28-4.883-.35-1.913-.695-3.048-2.591t-1.526-5.255l-3.166-27.312q-.397-3.421 1.358-5.785 1.748-2.427 5.04-2.809 3.875-.449 5.847.762 2.037 1.203 2.538 5.53l3.002 25.891 11.041-1.28q3.745-.434 5.357.491 1.677.918 2.074 4.341.404 3.486-1.22 4.721-1.623 1.236-5.562 1.692zM486.626 206.205q.606 5.23-1.004 7.707-1.618 2.412-5.492 2.862-3.745.434-5.72-1.366-1.983-1.863-2.647-7.022l-1.277-10.452-11.291-10.47q-3.07-2.784-3.333-5.044-.411-3.552 2.061-5.932 2.358-2.236 4.36-2.469 2.776-.321 5.263 1.942l8.94 8.256 5.696-8.447q2.836-4.32 6.581-4.755 2.776-.321 4.506 1.048 2.954 2.34 3.238 4.794.157 1.357-.567 3.01-.732 1.59-2.456 4.211l-7.981 12.442zM616.264 214.801q-.507 2.815-2.47 4.178-1.952 1.3-5.15.724a7.6 7.6 0 0 1-1.629-.491q-.797-.342-1.664-1.027a40 40 0 0 1-1.427-1.247q-.622-.575-1.549-1.666a30 30 0 0 0-1.398-1.771q-.472-.68-1.533-2.125a115 115 0 0 1-1.532-2.126l-9.714-13.175-2.5 13.882q-.565 3.134-1.987 4.067-1.359.943-3.918.483-2.815-.507-3.928-2.028-1.112-1.522-.571-4.528l5.565-30.898q.657-3.646 2.846-5.168 2.19-1.52 5.643-.898 2.367.426 3.636 1.447 1.345.969 2.983 3.245l13.281 19.035 2.511-13.945q.496-2.751 2.081-3.852 1.66-1.154 4.028-.728 2.75.495 3.736 1.994.984 1.498.466 4.377zM652.89 219.954q2.114.641 4.173-.772 2.121-1.394 3.573-3.942 1.515-2.53 2.458-5.64.962-3.172 1.127-6.179.183-3.068-.768-5.531-.889-2.443-2.942-3.066-1.99-.603-4.087.934-2.096 1.538-3.71 4.173a24.6 24.6 0 0 0-2.558 5.745q-.943 3.11-1.089 6.055-.084 2.963.843 5.282.989 2.337 2.98 2.941m8.991 9.995q-5.65.936-11.808-.932-6.096-1.85-10.274-5.765-4.097-3.96-5.53-9.761t.585-12.456q3.057-10.076 10.882-14.156 7.908-4.122 17.549-1.198t13.926 10.744q4.303 7.758 1.247 17.835-2.019 6.656-6.495 10.664-4.413 4.028-10.082 5.025M722.752 243.693q2.358.929 4.266-1.254 1.932-2.242 4.218-8.049l5.957-14.77q1.262-3.205 3.285-4.085 2.107-.916 5.736.513 2.238.881 3.283 2.131 1.106 1.273 1.239 3.771.134 2.498-.932 6.27t-3.425 9.759q-1.404 3.569-3.224 6.414-1.82 2.847-3.753 4.74a22 22 0 0 1-4.123 3.196q-2.106 1.267-4.155 1.857a20.4 20.4 0 0 1-4.136.746 18.6 18.6 0 0 1-3.9-.208 19 19 0 0 1-3.324-.96q-5.443-2.145-8.501-7.33-5.759 1.853-11.263-.314a18.6 18.6 0 0 1-4.455-2.524q-2.073-1.654-3.886-4.324-1.752-2.646-2.65-5.864-.875-3.279-.512-7.747.447-4.504 2.376-9.403 3.12-7.923 5.442-11.689 2.382-3.742 4.466-4.599 2.144-.832 5.107.335 2.48.977 3.645 2.274 1.19 1.237 1.271 2.806t-.753 3.685l-5.752 14.781q-2.286 5.806-2.403 8.764t2.544 4.006q1.33.523 2.424-.303 1.118-.887 2.337-3.271.594-3.817 3.525-11.257 1.643-4.173 2.801-6.581t2.236-4.079 2.233-2.125a5.04 5.04 0 0 1 2.304-.35q1.231.066 3.106.804a27 27 0 0 1 1.851.799q.823.394 1.43.982.606.59.995 1.021.388.432.55 1.265.161.832.213 1.411t-.196 1.739a14.5 14.5 0 0 1-.46 2.054q-.189.834-.832 2.467-.559 1.596-1.035 2.806-.392 1.173-1.25 3.35-3 7.62-5.216 10.939-.616 2.273-.355 3.563.26 1.29 1.651 1.838"/><path stroke="#FBD0B0" stroke-linecap="round" stroke-width="10" d="M130.5 339.194c-27.89 0-50.5-18.019-50.5-49.5 0-31.48 22.61-71 50.5-71M865.5 156.694c32-5 57.352 7.593 65.5 38.001s-6.56 59.781-33.5 66.999"/><defs><linearGradient id="a" x1="405.5" x2="179" y1="348" y2="578.5" gradientUnits="userSpaceOnUse"><stop stop-color="#54200B"/><stop offset="1" stop-color="#54200C" stop-opacity="0"/></linearGradient></defs></svg>

<svg width="993" height="594" viewBox="0 0 993 594" fill="none" xmlns="http://www.w3.org/2000/svg">
<path d="M347.336 116.602C333.061 104.817 318.899 93.1258 278.292 100.855C224.609 111.072 208.593 142.339 194.904 169.063C186.747 184.987 179.416 199.299 165.434 206.585C155.798 211.606 139.78 212.752 121.405 214.066C68.3733 217.859 -4.28908 223.057 0.198194 326.879L0.198253 326.881C3.73145 408.616 42.5284 407.998 79.1416 407.414C105.15 407 130.056 406.603 140.438 435.754C147.905 456.722 146.556 477.651 145.3 497.134C144.989 501.946 144.685 506.67 144.52 511.285C143.12 550.529 151.841 581.859 253.263 592.229C351.807 602.306 391.972 567.438 427.53 536.57C450.293 516.809 471.168 498.687 504.262 495.045C538.567 491.271 583.52 507.788 630.344 524.993C699.252 550.313 772.213 577.121 821.252 542.935C870.537 508.579 856.984 473.852 843.307 438.804C834.127 415.282 824.891 391.614 834.557 367.817C844.286 343.863 871.115 333.565 899.472 322.681C941.263 306.641 986.373 289.327 984.968 225.153C983.282 148.155 886.081 139.372 821.36 133.523C795.534 131.189 774.88 129.323 767.53 123.776C760.179 118.229 754.977 108.567 749.101 97.6521C734.375 70.3012 715.417 35.0889 647.818 37.0809C596.164 38.6029 566.158 58.68 533.326 80.6485C506.043 98.9032 476.809 118.464 431.581 129.77C379.161 142.874 363.179 129.68 347.336 116.602Z" fill="url(#paint0_linear_325_53)" fill-opacity="0.36"/>
<path d="M356.992 88.7812C342.936 76.7765 328.993 64.8674 289.01 72.7404C236.153 83.1487 220.384 114.998 206.905 142.222C198.873 158.443 191.655 173.022 177.889 180.443C168.401 185.558 152.629 186.725 134.537 188.064C82.3213 191.928 10.7769 197.223 15.1951 302.982L15.1952 302.984C18.674 386.245 56.874 385.615 92.9239 385.02C118.532 384.598 143.055 384.193 153.277 413.889C160.629 435.248 159.301 456.568 158.064 476.414C157.759 481.316 157.459 486.128 157.297 490.829C155.918 530.805 164.505 562.72 264.366 573.284C361.394 583.548 400.941 548.03 435.952 516.585C458.365 496.456 478.918 477.996 511.503 474.286C545.28 470.441 589.541 487.267 635.645 504.793C703.493 530.585 775.332 557.893 823.616 523.07C872.142 488.072 858.799 452.698 845.331 416.996C836.293 393.034 827.199 368.925 836.716 344.684C846.295 320.283 872.712 309.793 900.633 298.706C941.78 282.367 986.197 264.73 984.813 199.358C983.153 120.924 887.448 111.976 823.722 106.019C798.294 103.641 777.957 101.74 770.72 96.0897C763.483 90.4392 758.361 80.5963 752.575 69.4782C738.076 41.6169 719.409 5.74761 652.85 7.77672C601.992 9.32719 572.447 29.7789 540.12 52.1573C513.257 70.7526 484.473 90.6782 439.941 102.195C388.327 115.543 372.591 102.104 356.992 88.7812Z" fill="#E6AA92"/>
<path d="M364.307 81.0869C350.251 69.0822 336.307 57.173 296.325 65.0461C243.468 75.4544 227.698 107.304 214.219 134.528C206.188 150.749 198.969 165.327 185.203 172.749C175.715 177.864 159.944 179.031 141.852 180.37C89.6357 184.234 18.0914 189.528 22.5096 295.288L22.5097 295.289C25.9885 378.55 64.1885 377.92 100.238 377.326C125.846 376.904 150.369 376.499 160.591 406.195C167.944 427.554 166.615 448.873 165.379 468.72C165.073 473.622 164.773 478.434 164.611 483.134C163.233 523.111 171.82 555.025 271.68 565.59C368.709 575.854 408.256 540.335 443.266 508.891C465.679 488.761 486.233 470.301 518.818 466.592C552.595 462.747 596.856 479.572 642.96 497.098C710.808 522.89 782.646 550.199 830.93 515.376C879.457 480.378 866.113 445.003 852.646 409.301C843.607 385.34 834.513 361.231 844.03 336.99C853.61 312.588 880.026 302.099 907.947 291.012C949.095 274.673 993.511 257.036 992.127 191.663C990.467 113.229 894.762 104.282 831.037 98.3242C805.608 95.9469 785.272 94.0457 778.035 88.3954C770.797 82.7449 765.675 72.902 759.889 61.7838C745.39 33.9226 726.723 -1.94673 660.165 0.082383C609.306 1.63286 579.762 22.0846 547.434 44.463C520.572 63.0583 491.787 82.9839 447.255 94.5007C395.641 107.849 379.905 94.4092 364.307 81.0869Z" fill="#FBD0B0"/>
<path d="M370.3 107.15C357.054 96.7189 343.913 86.3712 306.233 93.2119C256.419 102.256 241.557 129.929 228.855 153.583C221.286 167.678 214.483 180.345 201.509 186.794C192.568 191.238 177.705 192.252 160.654 193.415C111.445 196.773 44.0201 201.373 48.1839 293.266L48.184 293.267C51.4625 365.612 87.4629 365.064 121.437 364.548C145.57 364.181 168.681 363.829 178.315 389.631C185.244 408.19 183.992 426.714 182.826 443.959C182.538 448.218 182.256 452.399 182.103 456.483C180.804 491.218 188.896 518.948 283.007 528.127C374.449 537.046 411.719 506.184 444.713 478.863C465.835 461.372 485.206 445.333 515.914 442.11C547.746 438.769 589.459 453.388 632.908 468.616C696.849 491.027 764.551 514.755 810.055 484.497C855.787 454.088 843.212 423.352 830.52 392.331C822.002 371.511 813.432 350.563 822.401 329.5C831.429 308.298 856.324 299.184 882.637 289.55C921.416 275.354 963.274 260.029 961.97 203.228C960.406 135.078 870.212 127.303 810.156 122.127C786.191 120.061 767.025 118.409 760.205 113.5C753.385 108.59 748.557 100.038 743.104 90.3775C729.44 66.1692 711.849 35.0029 649.122 36.7659C601.192 38.1131 573.349 55.8833 542.883 75.3276C517.567 91.4848 490.44 108.798 448.473 118.805C399.83 130.403 385 118.725 370.3 107.15Z" fill="#FFDDC4"/>
<path d="M265.21 227.676C263.527 228.476 262.508 229.561 262.151 230.93C261.834 232.281 262.27 234.208 263.461 236.713L266.755 243.64L276.499 239.006L273.15 231.962C272.368 230.318 271.549 229.1 270.693 228.308C269.818 227.477 268.944 227.052 268.072 227.035C267.221 226.96 266.267 227.174 265.21 227.676ZM280.351 247.107L270.607 251.74L272.086 254.852C273.035 256.847 273.204 258.566 272.594 260.008C271.984 261.45 270.388 262.784 267.805 264.013C266.709 264.534 265.735 264.805 264.881 264.827C264.028 264.849 263.151 264.618 262.249 264.135C261.387 263.633 260.484 262.743 259.54 261.465C258.617 260.128 257.602 258.5 256.497 256.578C255.412 254.599 254.134 252.063 252.664 248.972C251.38 246.272 250.482 243.676 249.969 241.185C249.477 238.636 249.328 236.355 249.523 234.343C249.757 232.313 250.202 230.422 250.857 228.671C251.493 226.881 252.357 225.318 253.45 223.983C254.582 222.629 255.738 221.48 256.92 220.534C258.122 219.53 259.408 218.703 260.778 218.052C262.422 217.27 264.157 216.733 265.985 216.44C267.794 216.107 269.781 216.098 271.946 216.412C274.111 216.726 276.19 217.417 278.185 218.484C280.2 219.493 282.213 221.103 284.224 223.314C286.235 225.524 288.003 228.234 289.529 231.443C291.985 236.609 293.613 240.537 294.413 243.228C295.233 245.861 295.425 247.881 294.991 249.287C294.595 250.675 293.477 251.806 291.638 252.68C289.055 253.908 287.012 254.304 285.509 253.867C284.006 253.43 282.779 252.214 281.83 250.218L280.351 247.107Z" fill="#E6AA92"/>
<path d="M329.671 210.724C329.248 209.177 328.77 208.005 328.237 207.208C327.693 206.368 326.982 205.821 326.104 205.567C325.267 205.302 324.393 205.227 323.481 205.342C322.599 205.403 321.406 205.64 319.902 206.051L323.675 219.845C324.846 219.524 325.841 219.14 326.662 218.69C327.524 218.23 328.263 217.646 328.878 216.938C329.493 216.231 329.863 215.366 329.988 214.344C330.142 213.268 330.037 212.061 329.671 210.724ZM326.883 231.569C327.81 234.954 327.846 237.55 326.992 239.356C326.127 241.12 324.399 242.357 321.808 243.066C319.216 243.775 317.137 243.647 315.571 242.683C313.992 241.677 312.746 239.503 311.831 236.159L304.592 209.701C303.894 207.152 304.069 205.082 305.117 203.493C306.153 201.861 307.8 200.737 310.057 200.119L321.217 197.066C323.934 196.322 326.544 196.012 329.049 196.136C331.542 196.217 333.808 196.698 335.846 197.578C337.914 198.405 339.682 199.696 341.151 201.45C342.649 203.152 343.731 205.215 344.394 207.639C345.206 210.607 345.058 213.432 343.95 216.117C342.831 218.759 341.02 221.006 338.517 222.859C336.014 224.712 333.007 226.119 329.496 227.08L325.923 228.058L326.883 231.569Z" fill="#E6AA92"/>
<path d="M382.234 198.545C381.964 196.965 381.603 195.752 381.151 194.906C380.692 194.017 380.038 193.403 379.189 193.065C378.382 192.719 377.52 192.558 376.601 192.583C375.717 192.558 374.507 192.677 372.969 192.939L375.375 207.035C376.571 206.831 377.599 206.546 378.459 206.179C379.363 205.805 380.155 205.296 380.837 204.653C381.518 204.009 381.971 203.184 382.195 202.179C382.454 201.123 382.467 199.912 382.234 198.545ZM377.419 219.017C378.01 222.477 377.792 225.064 376.765 226.778C375.732 228.449 373.891 229.51 371.242 229.962C368.594 230.414 366.538 230.084 365.073 228.971C363.601 227.815 362.573 225.529 361.99 222.112L357.376 195.073C356.931 192.467 357.308 190.425 358.506 188.945C359.697 187.423 361.446 186.465 363.752 186.072L375.157 184.125C377.934 183.652 380.563 183.599 383.043 183.967C385.516 184.292 387.724 184.992 389.666 186.067C391.643 187.093 393.277 188.55 394.566 190.44C395.891 192.28 396.765 194.439 397.188 196.917C397.706 199.949 397.282 202.747 395.917 205.31C394.545 207.83 392.522 209.89 389.85 211.489C387.178 213.088 384.047 214.193 380.459 214.806L376.807 215.429L377.419 219.017Z" fill="#E6AA92"/>
<path d="M424.047 222.741C422.062 222.927 420.434 222.811 419.164 222.391C417.889 221.928 416.873 221.064 416.116 219.8C415.358 218.535 414.85 216.784 414.59 214.545L411.424 187.233C411.16 184.952 411.612 183.024 412.782 181.448C413.947 179.83 415.627 178.894 417.822 178.639C420.405 178.34 422.354 178.594 423.669 179.401C425.027 180.203 425.873 182.046 426.207 184.931L429.209 210.822L440.25 209.542C442.747 209.253 444.532 209.416 445.607 210.033C446.725 210.645 447.416 212.092 447.681 214.374C447.95 216.698 447.544 218.272 446.461 219.095C445.379 219.919 443.525 220.483 440.899 220.787L424.047 222.741Z" fill="#E6AA92"/>
<path d="M486.626 206.205C487.03 209.692 486.696 212.261 485.622 213.912C484.543 215.52 482.713 216.474 480.13 216.774C477.633 217.063 475.727 216.608 474.41 215.408C473.088 214.166 472.206 211.825 471.763 208.386L470.486 197.934L459.195 187.464C457.148 185.608 456.037 183.926 455.862 182.42C455.588 180.052 456.275 178.075 457.923 176.488C459.495 174.997 460.948 174.174 462.283 174.019C464.134 173.805 465.888 174.452 467.546 175.961L476.486 184.217L482.182 175.77C484.073 172.889 486.266 171.305 488.763 171.015C490.614 170.801 492.116 171.15 493.269 172.063C495.238 173.623 496.318 175.221 496.507 176.857C496.612 177.761 496.423 178.765 495.94 179.867C495.452 180.927 494.633 182.331 493.484 184.078L485.503 196.52L486.626 206.205Z" fill="#E6AA92"/>
<path d="M616.264 214.801C615.926 216.678 615.102 218.07 613.794 218.979C612.493 219.846 610.776 220.087 608.644 219.703C608.09 219.603 607.547 219.439 607.015 219.212C606.484 218.984 605.929 218.642 605.351 218.185C604.815 217.737 604.34 217.321 603.924 216.938C603.509 216.555 602.993 215.999 602.375 215.272C601.808 214.509 601.342 213.919 600.977 213.501C600.662 213.048 600.151 212.34 599.444 211.376C598.737 210.412 598.227 209.703 597.912 209.25L588.198 196.075L585.698 209.957C585.322 212.046 584.659 213.402 583.711 214.024C582.805 214.653 581.499 214.814 579.793 214.507C577.917 214.169 576.607 213.493 575.865 212.479C575.124 211.465 574.933 209.955 575.294 207.951L580.859 177.053C581.297 174.622 582.245 172.9 583.705 171.885C585.164 170.871 587.046 170.572 589.348 170.987C590.926 171.271 592.138 171.753 592.984 172.434C593.881 173.08 594.875 174.161 595.967 175.679L609.248 194.714L611.759 180.769C612.09 178.935 612.783 177.651 613.84 176.917C614.947 176.147 616.29 175.905 617.868 176.189C619.702 176.519 620.947 177.184 621.604 178.183C622.26 179.182 622.416 180.641 622.07 182.56L616.264 214.801Z" fill="#E6AA92"/>
<path d="M652.89 219.954C654.299 220.382 655.691 220.124 657.063 219.182C658.477 218.253 659.668 216.938 660.636 215.24C661.646 213.553 662.465 211.674 663.094 209.6C663.735 207.485 664.111 205.426 664.221 203.421C664.343 201.375 664.087 199.532 663.453 197.89C662.86 196.261 661.88 195.24 660.511 194.824C659.184 194.422 657.822 194.733 656.424 195.758C655.027 196.784 653.79 198.174 652.714 199.931C651.637 201.688 650.785 203.603 650.156 205.676C649.527 207.749 649.164 209.768 649.067 211.731C649.011 213.706 649.292 215.467 649.91 217.013C650.569 218.571 651.563 219.552 652.89 219.954ZM661.881 229.949C658.114 230.573 654.178 230.262 650.073 229.017C646.009 227.784 642.584 225.862 639.799 223.252C637.068 220.612 635.224 217.358 634.269 213.491C633.313 209.624 633.509 205.472 634.854 201.035C636.892 194.317 640.519 189.599 645.736 186.879C651.008 184.131 656.857 183.731 663.285 185.681C669.712 187.63 674.354 191.212 677.211 196.425C680.08 201.597 680.495 207.542 678.458 214.26C677.112 218.697 674.947 222.252 671.963 224.924C669.021 227.609 665.66 229.284 661.881 229.949Z" fill="#E6AA92"/>
<path d="M722.752 243.693C724.324 244.312 725.746 243.894 727.018 242.439C728.306 240.944 729.712 238.261 731.236 234.39L737.193 219.62C738.034 217.483 739.13 216.122 740.478 215.535C741.883 214.924 743.795 215.095 746.214 216.048C747.706 216.635 748.8 217.346 749.497 218.179C750.234 219.028 750.647 220.285 750.736 221.95C750.825 223.616 750.515 225.705 749.804 228.22C749.093 230.734 747.951 233.987 746.379 237.979C745.443 240.358 744.368 242.496 743.155 244.393C741.941 246.291 740.691 247.871 739.402 249.133C738.113 250.395 736.738 251.46 735.279 252.329C733.875 253.174 732.49 253.792 731.124 254.186C729.758 254.579 728.38 254.828 726.988 254.932C725.612 254.996 724.312 254.926 723.088 254.724C721.92 254.496 720.812 254.176 719.764 253.764C716.135 252.334 713.302 249.891 711.263 246.434C707.424 247.669 703.669 247.565 700 246.12C698.428 245.5 696.943 244.659 695.545 243.596C694.163 242.493 692.868 241.052 691.659 239.272C690.491 237.508 689.608 235.553 689.009 233.408C688.426 231.222 688.255 228.64 688.497 225.661C688.795 222.658 689.587 219.524 690.873 216.258C692.953 210.976 694.767 207.08 696.315 204.569C697.903 202.074 699.392 200.541 700.781 199.97C702.21 199.416 703.913 199.527 705.888 200.305C707.541 200.956 708.756 201.714 709.533 202.579C710.326 203.404 710.75 204.339 710.804 205.385C710.858 206.431 710.607 207.659 710.051 209.07L704.299 223.851C702.775 227.722 701.974 230.643 701.896 232.615C701.818 234.587 702.666 235.922 704.44 236.621C705.327 236.97 706.135 236.869 706.864 236.318C707.609 235.727 708.388 234.636 709.201 233.047C709.597 230.502 710.772 226.75 712.726 221.79C713.821 219.008 714.755 216.815 715.527 215.209C716.299 213.604 717.044 212.244 717.763 211.13C718.481 210.015 719.225 209.307 719.996 209.005C720.767 208.704 721.535 208.587 722.3 208.655C723.121 208.699 724.156 208.967 725.406 209.459C726.132 209.745 726.749 210.012 727.257 210.258C727.806 210.521 728.282 210.848 728.687 211.24C729.091 211.633 729.423 211.973 729.682 212.261C729.941 212.549 730.124 212.971 730.232 213.526C730.34 214.08 730.41 214.551 730.445 214.937C730.479 215.323 730.414 215.903 730.249 216.676C730.124 217.465 729.971 218.15 729.789 218.73C729.663 219.286 729.386 220.108 728.957 221.197C728.585 222.261 728.239 223.197 727.922 224.003C727.661 224.785 727.244 225.902 726.672 227.353C724.672 232.433 722.933 236.08 721.456 238.292C721.045 239.807 720.927 240.995 721.101 241.855C721.274 242.715 721.825 243.328 722.752 243.693Z" fill="#E6AA92"/>
<path d="M130.5 339.194C102.61 339.194 80 321.175 80 289.694C80 258.214 102.61 218.694 130.5 218.694" stroke="#FBD0B0" stroke-width="10" stroke-linecap="round"/>
<path d="M865.5 156.694C897.5 151.694 922.852 164.287 931 194.695C939.148 225.102 924.44 254.476 897.5 261.694" stroke="#FBD0B0" stroke-width="10" stroke-linecap="round"/>
<defs>
<linearGradient id="paint0_linear_325_53" x1="405.5" y1="348" x2="179" y2="578.5" gradientUnits="userSpaceOnUse">
<stop stop-color="#54200B"/>
<stop offset="1" stop-color="#54200C" stop-opacity="0"/>
</linearGradient>
</defs>
</svg>
